flaticon/security/shield-2.svg

<svg xmlns="http://www.w3.org/2000/svg" width="32" height="32" viewBox="0 0 24 24">
    <path d="M 20.800781 3.199219 C 14.964844 3.199219 12.34375 0.1875 12.308594 0.144531 C 12.230469 0.0507812 12.117188 0 12 0 C 11.890625 0.00390625 11.769531 0.0507812 11.691406 0.140625 C 11.667969 0.171875 9.050781 3.199219 3.199219 3.199219 C 2.980469 3.199219 2.800781 3.378906 2.800781 3.601562 L 2.800781 11.234375 C 2.800781 15.40625 4.675781 19.375 7.820312 21.84375 C 9.085938 22.839844 10.453125 23.558594 11.886719 23.984375 C 11.921875 23.996094 11.960938 24 12 24 C 12.039062 24 12.078125 23.996094 12.113281 23.984375 C 13.546875 23.558594 14.914062 22.839844 16.183594 21.84375 C 19.324219 19.375 21.199219 15.40625 21.199219 11.234375 L 21.199219 3.601562 C 21.199219 3.378906 21.019531 3.199219 20.800781 3.199219 Z M 20.398438 11.234375 C 20.398438 15.164062 18.640625 18.894531 15.6875 21.214844 C 14.535156 22.121094 13.292969 22.78125 12 23.183594 C 10.707031 22.78125 9.464844 22.121094 8.3125 21.214844 C 5.363281 18.894531 3.601562 15.164062 3.601562 11.234375 L 3.601562 3.996094 C 8.496094 3.886719 11.144531 1.796875 12 0.976562 C 12.855469 1.796875 15.503906 3.886719 20.398438 3.996094 Z M 20.398438 11.234375"/>
    <path d="M 10.800781 7.15625 L 10.800781 8.167969 C 10.800781 8.222656 10.71875 8.285156 10.640625 8.316406 C 10.5 8.375 10.328125 8.367188 10.261719 8.300781 L 9.546875 7.585938 C 9.25 7.289062 8.769531 7.289062 8.476562 7.585938 L 7.566406 8.496094 C 7.421875 8.636719 7.34375 8.828125 7.34375 9.03125 C 7.34375 9.230469 7.421875 9.421875 7.566406 9.566406 L 8.28125 10.277344 C 8.328125 10.328125 8.347656 10.371094 8.351562 10.359375 C 8.34375 10.371094 8.292969 10.398438 8.191406 10.398438 L 7.199219 10.398438 C 6.734375 10.398438 6.398438 10.972656 6.398438 11.355469 L 6.398438 12.398438 C 6.398438 12.820312 6.78125 13.199219 7.199219 13.199219 L 8.191406 13.199219 C 8.257812 13.199219 8.304688 13.304688 8.3125 13.328125 C 8.371094 13.46875 8.355469 13.644531 8.28125 13.71875 L 7.566406 14.433594 C 7.273438 14.730469 7.273438 15.210938 7.566406 15.503906 L 8.476562 16.414062 C 8.773438 16.710938 9.253906 16.707031 9.546875 16.414062 L 10.261719 15.699219 C 10.292969 15.667969 10.398438 15.667969 10.519531 15.71875 C 10.6875 15.789062 10.800781 15.921875 10.800781 16 L 10.800781 16.800781 C 10.800781 16.832031 10.796875 16.859375 10.796875 16.890625 C 10.789062 17.039062 10.773438 17.261719 10.9375 17.4375 C 11.007812 17.511719 11.136719 17.601562 11.335938 17.601562 L 12.625 17.601562 C 12.824219 17.601562 12.953125 17.511719 13.027344 17.441406 C 13.203125 17.261719 13.203125 17.023438 13.199219 16.847656 L 13.199219 16 C 13.199219 15.914062 13.308594 15.78125 13.472656 15.710938 C 13.570312 15.671875 13.667969 15.667969 13.703125 15.699219 L 14.417969 16.414062 C 14.710938 16.710938 15.191406 16.710938 15.484375 16.414062 L 16.394531 15.503906 C 16.539062 15.363281 16.617188 15.171875 16.617188 14.96875 C 16.617188 14.769531 16.539062 14.578125 16.394531 14.433594 L 15.683594 13.71875 C 15.628906 13.667969 15.613281 13.632812 15.609375 13.636719 C 15.621094 13.628906 15.667969 13.601562 15.769531 13.601562 L 16.800781 13.601562 C 17.265625 13.601562 17.601562 13.027344 17.601562 12.644531 L 17.601562 11.355469 C 17.601562 10.972656 17.265625 10.398438 16.800781 10.398438 L 15.769531 10.398438 C 15.664062 10.398438 15.617188 10.367188 15.613281 10.378906 C 15.613281 10.371094 15.628906 10.332031 15.683594 10.277344 L 16.394531 9.566406 C 16.539062 9.421875 16.617188 9.230469 16.617188 9.03125 C 16.617188 8.828125 16.539062 8.636719 16.394531 8.496094 L 15.484375 7.585938 C 15.191406 7.289062 14.710938 7.289062 14.417969 7.585938 L 13.703125 8.300781 C 13.636719 8.367188 13.484375 8.375 13.355469 8.320312 C 13.28125 8.289062 13.199219 8.234375 13.199219 8.167969 L 13.199219 7.15625 C 13.199219 6.738281 12.859375 6.398438 12.445312 6.398438 L 11.554688 6.398438 C 11.140625 6.398438 10.800781 6.738281 10.800781 7.15625 Z M 11.601562 7.199219 L 12.398438 7.199219 L 12.398438 8.167969 C 12.398438 8.550781 12.648438 8.894531 13.046875 9.058594 C 13.480469 9.238281 13.972656 9.160156 14.265625 8.863281 L 14.949219 8.179688 L 15.800781 9.03125 L 15.117188 9.714844 C 14.832031 9.996094 14.742188 10.355469 14.871094 10.671875 C 15.007812 10.996094 15.351562 11.199219 15.769531 11.199219 L 16.722656 11.199219 C 16.757812 11.242188 16.796875 11.320312 16.800781 11.355469 L 16.800781 12.636719 C 16.796875 12.675781 16.757812 12.753906 16.722656 12.800781 L 15.769531 12.800781 C 15.351562 12.800781 15.007812 13 14.871094 13.328125 C 14.742188 13.644531 14.832031 14.003906 15.117188 14.285156 L 15.800781 14.96875 L 14.949219 15.816406 L 14.265625 15.132812 C 13.996094 14.867188 13.574219 14.804688 13.164062 14.972656 C 12.707031 15.164062 12.398438 15.574219 12.398438 16 L 12.398438 16.800781 L 11.601562 16.800781 L 11.601562 16 C 11.601562 15.582031 11.289062 15.171875 10.824219 14.976562 C 10.402344 14.800781 9.96875 14.863281 9.695312 15.136719 L 9.011719 15.816406 L 8.164062 14.96875 L 8.847656 14.285156 C 9.15625 13.976562 9.238281 13.46875 9.050781 13.019531 C 8.894531 12.636719 8.5625 12.398438 8.191406 12.398438 L 7.226562 12.402344 C 7.214844 12.398438 7.199219 12.382812 7.199219 12.398438 L 7.199219 11.363281 C 7.203125 11.320312 7.242188 11.246094 7.277344 11.199219 L 8.191406 11.199219 C 8.609375 11.199219 8.953125 10.996094 9.089844 10.671875 C 9.222656 10.355469 9.128906 9.996094 8.847656 9.714844 L 8.164062 9.03125 L 9.011719 8.183594 L 9.695312 8.863281 C 9.992188 9.164062 10.496094 9.242188 10.945312 9.054688 C 11.351562 8.886719 11.601562 8.546875 11.601562 8.167969 Z M 11.601562 7.199219"/>
    <path d="M 9.980469 12 C 9.980469 13.101562 10.878906 14 11.980469 14 C 13.082031 14 13.980469 13.101562 13.980469 12 C 13.980469 10.898438 13.082031 10 11.980469 10 C 10.878906 10 9.980469 10.898438 9.980469 12 Z M 11.980469 10.800781 C 12.644531 10.800781 13.179688 11.339844 13.179688 12 C 13.179688 12.660156 12.644531 13.199219 11.980469 13.199219 C 11.320312 13.199219 10.78125 12.660156 10.78125 12 C 10.78125 11.339844 11.320312 10.800781 11.980469 10.800781 Z M 11.980469 10.800781"/>
</svg>

<svg xmlns="http://www.w3.org/2000/svg" width="32" height="32" viewBox="0 0 24 24">
    <path d="M20.8 3.2C14.966 3.2 12.345.186 12.31.144A.4.4 0 0 0 12 0a.438.438 0 0 0-.309.14C11.668.173 9.051 3.2 3.2 3.2a.401.401 0 0 0-.398.402v7.632c0 4.172 1.875 8.141 5.02 10.61 1.265.996 2.632 1.715 4.066 2.14A.361.361 0 0 0 12 24c.04 0 .078-.004.113-.016 1.434-.425 2.801-1.144 4.07-2.14 3.141-2.469 5.016-6.438 5.016-10.61V3.602a.401.401 0 0 0-.398-.403zm-.402 8.034c0 3.93-1.757 7.66-4.71 9.98-1.153.907-2.395 1.567-3.688 1.97-1.293-.403-2.535-1.063-3.688-1.97-2.949-2.32-4.71-6.05-4.71-9.98V3.996c4.894-.11 7.543-2.2 8.398-3.02.855.82 3.504 2.91 8.398 3.02zm0 0"/>
    <path d="M10.8 7.156v1.012c0 .055-.081.117-.16.148-.14.059-.312.051-.378-.015l-.715-.715a.754.754 0 0 0-1.07 0l-.91.91a.754.754 0 0 0 0 1.07l.714.711c.047.051.067.094.07.082-.007.012-.058.04-.16.04H7.2c-.465 0-.8.574-.8.956v1.043c0 .422.382.801.8.801h.992c.067 0 .114.106.121.13.06.14.043.316-.03.39l-.716.715a.762.762 0 0 0 0 1.07l.91.91a.758.758 0 0 0 1.07 0l.716-.715c.031-.031.136-.031.258.02.168.07.28.203.28.281v.8c0 .032-.003.06-.003.09-.008.15-.024.372.14.547.07.075.2.165.399.165h1.289c.2 0 .328-.09.402-.16.176-.18.176-.419.172-.594V16c0-.086.11-.219.274-.29.097-.038.195-.042.23-.01l.715.714a.75.75 0 0 0 1.066 0l.91-.91a.754.754 0 0 0 0-1.07l-.71-.715c-.055-.051-.07-.086-.075-.082.012-.008.059-.035.16-.035h1.032c.465 0 .8-.575.8-.957v-1.29c0-.382-.335-.957-.8-.957H15.77c-.106 0-.153-.03-.157-.02 0-.007.016-.046.07-.1l.712-.712a.754.754 0 0 0 0-1.07l-.91-.91a.75.75 0 0 0-1.067 0l-.715.715c-.066.066-.219.074-.348.02-.074-.032-.156-.087-.156-.153V7.156a.758.758 0 0 0-.754-.758h-.89a.758.758 0 0 0-.754.758zm.802.043h.796v.969c0 .383.25.727.649.89.433.18.926.102 1.219-.195l.683-.683.852.851-.684.684c-.285.281-.375.64-.246.957.137.324.48.527.899.527h.953a.417.417 0 0 1 .078.156v1.282a.444.444 0 0 1-.078.164h-.953c-.418 0-.762.199-.899.527-.129.317-.039.676.246.957l.684.684-.852.847-.683-.683c-.27-.266-.692-.328-1.102-.16-.457.191-.766.601-.766 1.027v.8h-.796V16c0-.418-.313-.828-.778-1.023-.422-.176-.855-.114-1.129.16l-.683.68-.848-.848.684-.684c.308-.308.39-.816.203-1.265-.156-.383-.489-.622-.86-.622l-.964.004c-.012-.004-.028-.02-.028-.004v-1.035a.418.418 0 0 1 .078-.164h.914c.418 0 .762-.203.899-.527.133-.317.039-.676-.242-.957l-.684-.684.848-.847.683.68c.297.3.801.378 1.25.19.407-.167.657-.507.657-.886zm0 0"/>
    <path d="M9.98 12c0 1.102.899 2 2 2 1.102 0 2-.898 2-2 0-1.102-.898-2-2-2-1.101 0-2 .898-2 2zm2-1.2a1.2 1.2 0 1 1 0 2.4 1.2 1.2 0 0 1 0-2.4zm0 0"/>
</svg>
